X:3
T:Hanter Dro
C:Y. Dour 17
M:3/4
L:1/16
K:G
B2EG B2G2 c4|B2EG B2G2 A2e2|\
B2EG B2G2 c3B|ABAG F2D2 E4:|
e2ed c2c2 dedc|BAGG A2GA B4|\
e2ed c2c2 dedc|d4 cABc ABcA||
